X:813
T:Ewe Reel, The
R:reel
Z:id:hn-reel-813
M:C|
L:1/8
K:G
DG~G2 DGBG | =F2A=F c=FA=F | DGG^F G2eg | ^fdcA BGAF |
DG~G2 DGBG | =F2A=F c=FA=F | DGG^F G2eg | ^fdcA BG~G2 :|
|: g2bg dgbg | f2af dfaf | g2bg dgbg | agfa ~g3a |
bgaf gfde | fdcA BGAF | Gggf gbag | fdcA ~G3z :|
P:variations
|: DGGF DGGE | =F2A=F c=FA=F | DGG^F DGGg | ^fdcA BGAF |
DG~G2 DGGE | =F2A=F c=FA=F | DGG^F ~G3g | ^fdcA BG~G2 :|
|: g2bg dgbg | f2af dfaf | g2bg dgbg | agfa ~g3a |
bgaf gfde | fefd cAGF | Dggf gbag | fdcA ~G3z :|

